dist/svgs/geomicons-open/icons/skull.svg

<svg xmlns="http://www.w3.org/2000/svg" viewBox="0 0 32 32"><path d="M16 0C6 0 2 4 2 14v8l4 2v6h20v-6l4-2v-8C30 4 26 0 16 0M9 12a4.5 4.5 0 010 9 4.5 4.5 0 010-9m14 0a4.5 4.5 0 010 9 4.5 4.5 0 010-9"/></svg>

<svg id="skull" xmlns="http://www.w3.org/2000/svg" viewBox="0 0 32 32" width="32" height="32" fill="currentcolor">
  <path d="M16 0 C6 0 2 4 2 14 L2 22 L6 24 L6 30 L26 30 L26 24 L30 22 L30 14 C30 4 26 0 16 0 M9 12 A4.5 4.5 0 0 1 9 21 A4.5 4.5 0 0 1 9 12 M23 12 A4.5 4.5 0 0 1 23 21 A4.5 4.5 0 0 1 23 12"></path>
</svg>
